frontend/app/images/main/important.svg

<svg width="20" height="20" viewBox="0 0 20 20" fill="none" xmlns="http://www.w3.org/2000/svg">
<path d="M14.9999 1.66675H8.33325L3.34992 6.66675L3.33325 16.6667C3.33325 17.5834 4.08325 18.3334 4.99992 18.3334H14.9999C15.9166 18.3334 16.6666 17.5834 16.6666 16.6667V3.33341C16.6666 2.41675 15.9166 1.66675 14.9999 1.66675ZM14.9999 16.6667H4.99992V7.35842L9.02492 3.33341H14.9999V16.6667ZM9.16658 12.5001H10.8333V14.1667H9.16658V12.5001ZM9.16658 6.66675H10.8333V10.8334H9.16658V6.66675Z" fill="black"/>
</svg>

<svg width="20" height="20" fill="none" xmlns="http://www.w3.org/2000/svg"><path d="M15 1.667H8.333l-4.983 5-.017 10c0 .916.75 1.666 1.667 1.666h10c.917 0 1.667-.75 1.667-1.666V3.333c0-.916-.75-1.666-1.667-1.666zm0 15H5V7.358l4.025-4.025H15v13.334zM9.167 12.5h1.666v1.667H9.167V12.5zm0-5.833h1.666v4.166H9.167V6.667z" fill="#000"/></svg>
